X:595
T:First Flight of Geese
C:Gerald Trimble
R:hornpipe
H:
Z:
M:4/4
K:D
"D"DAAG AGFE|"A"A,EED EDB,D|A,EEF "G"GDFA|"A"GE (3EFE "D"DAGF|
"Em"EGBd "F#m"cAFA|"G"GE (3EEE "A"dBcA|"Em"Be (3dcB "F#m"cAFG|"G"BGDE "A"FE (3EEE|
"D"DGAB AGFE|"A"A,EED EDB,D|A,EEF "G"GDFA|"A"GE (3EFE "D"DAGF|
"Em"(3EFG Bd "F#m"cAFA|"G"GE (3EEE "A"dBcA|"Em"Be (3dcB "F#m"cAFG|"G"BGDE "A"FE (3EEE||
"Em"ef (3gfe "A"abag|"D"dfaf "G"edGB|"A"(3cBA eA "D"fAaf|gfde "G"GABA|
"Em"ef (3gfe "A"befa|"D"agde fAeA|"A"(3cBA EA "D"FAdA|"G"BGDE "A"FE (3EEE|
"Em"ef (3gfe "A"abag|"D"dfaf "G"edGB|"A"(3cBA eA "D"fAaf|gfde "G"GABA|
"Em"ef (3gfe "A"(3aba eb|"D"agde fAeA|"A"(3cBA EA "D"FAdA|"G"BGDE "A"FE (3EEE||
